src/assets/images/icons/lock-2-line.svg

<svg width="24" height="24" viewBox="0 0 24 24" fill="none" xmlns="http://www.w3.org/2000/svg">
<g clip-path="url(#clip0_58_16544)">
<path d="M6 8V7C6 5.4087 6.63214 3.88258 7.75736 2.75736C8.88258 1.63214 10.4087 1 12 1C13.5913 1 15.1174 1.63214 16.2426 2.75736C17.3679 3.88258 18 5.4087 18 7V8H20C20.2652 8 20.5196 8.10536 20.7071 8.29289C20.8946 8.48043 21 8.73478 21 9V21C21 21.2652 20.8946 21.5196 20.7071 21.7071C20.5196 21.8946 20.2652 22 20 22H4C3.73478 22 3.48043 21.8946 3.29289 21.7071C3.10536 21.5196 3 21.2652 3 21V9C3 8.73478 3.10536 8.48043 3.29289 8.29289C3.48043 8.10536 3.73478 8 4 8H6ZM19 10H5V20H19V10ZM11 15.732C10.6187 15.5119 10.3207 15.1721 10.1522 14.7653C9.98376 14.3586 9.9542 13.9076 10.0681 13.4823C10.1821 13.057 10.4332 12.6813 10.7825 12.4132C11.1318 12.1452 11.5597 11.9999 12 11.9999C12.4403 11.9999 12.8682 12.1452 13.2175 12.4132C13.5668 12.6813 13.8179 13.057 13.9319 13.4823C14.0458 13.9076 14.0162 14.3586 13.8478 14.7653C13.6793 15.1721 13.3813 15.5119 13 15.732V18H11V15.732ZM8 8H16V7C16 5.93913 15.5786 4.92172 14.8284 4.17157C14.0783 3.42143 13.0609 3 12 3C10.9391 3 9.92172 3.42143 9.17157 4.17157C8.42143 4.92172 8 5.93913 8 7V8Z" fill="#181D27"/>
</g>
<defs>
<clipPath id="clip0_58_16544">
<rect width="24" height="24" fill="white"/>
</clipPath>
</defs>
</svg>

<svg xmlns="http://www.w3.org/2000/svg" width="24" height="24" fill="none" viewBox="0 0 24 24"><g clip-path="url(#a)"><path fill="#181d27" d="M6 8V7a6 6 0 1 1 12 0v1h2a1 1 0 0 1 1 1v12a1 1 0 0 1-1 1H4a1 1 0 0 1-1-1V9a1 1 0 0 1 1-1zm13 2H5v10h14zm-8 5.732a2 2 0 1 1 2 0V18h-2zM8 8h8V7a4 4 0 1 0-8 0z"/></g><defs><clipPath id="a"><path fill="#fff" d="M0 0h24v24H0z"/></clipPath></defs></svg>
